images/3235259.svg

<?xml version="1.0" encoding="UTF-8"?>
<svg xmlns="http://www.w3.org/2000/svg" xmlns:xlink="http://www.w3.org/1999/xlink" width="300pt" height="300pt" viewBox="0 0 300 300" version="1.1">
<defs>
<g>
<symbol overflow="visible" id="glyph0-0">
<path style="stroke:none;" d="M 0.453125 1.59375 L 0.453125 -6.34375 L 4.953125 -6.34375 L 4.953125 1.59375 Z M 0.953125 1.09375 L 4.453125 1.09375 L 4.453125 -5.84375 L 0.953125 -5.84375 Z M 0.953125 1.09375 "/>
</symbol>
<symbol overflow="visible" id="glyph0-1">
<path style="stroke:none;" d="M 0.890625 -6.5625 L 2.078125 -6.5625 L 4.984375 -1.078125 L 4.984375 -6.5625 L 5.84375 -6.5625 L 5.84375 0 L 4.65625 0 L 1.75 -5.484375 L 1.75 0 L 0.890625 0 Z M 0.890625 -6.5625 "/>
</symbol>
<symbol overflow="visible" id="glyph0-2">
<path style="stroke:none;" d="M 3.546875 -5.953125 C 2.898438 -5.953125 2.382812 -5.710938 2 -5.234375 C 1.625 -4.753906 1.4375 -4.101562 1.4375 -3.28125 C 1.4375 -2.445312 1.625 -1.789062 2 -1.3125 C 2.382812 -0.832031 2.898438 -0.59375 3.546875 -0.59375 C 4.191406 -0.59375 4.703125 -0.832031 5.078125 -1.3125 C 5.453125 -1.789062 5.640625 -2.445312 5.640625 -3.28125 C 5.640625 -4.101562 5.453125 -4.753906 5.078125 -5.234375 C 4.703125 -5.710938 4.191406 -5.953125 3.546875 -5.953125 Z M 3.546875 -6.6875 C 4.460938 -6.6875 5.195312 -6.375 5.75 -5.75 C 6.300781 -5.132812 6.578125 -4.3125 6.578125 -3.28125 C 6.578125 -2.238281 6.300781 -1.410156 5.75 -0.796875 C 5.195312 -0.179688 4.460938 0.125 3.546875 0.125 C 2.617188 0.125 1.878906 -0.179688 1.328125 -0.796875 C 0.773438 -1.410156 0.5 -2.238281 0.5 -3.28125 C 0.5 -4.3125 0.773438 -5.132812 1.328125 -5.75 C 1.878906 -6.375 2.617188 -6.6875 3.546875 -6.6875 Z M 3.546875 -6.6875 "/>
</symbol>
</g>
</defs>
<g id="surface34193">
<rect x="0" y="0" width="300" height="300" style="fill:rgb(100%,100%,100%);fill-opacity:1;stroke:none;"/>
<path style="fill:none;stroke-width:1.2;stroke-linecap:butt;stroke-linejoin:miter;stroke:rgb(0%,0%,0%);stroke-opacity:1;stroke-miterlimit:10;" d="M 173.496094 197.171875 L 148.253906 196.058594 "/>
<path style="fill:none;stroke-width:1.2;stroke-linecap:butt;stroke-linejoin:miter;stroke:rgb(0%,0%,0%);stroke-opacity:1;stroke-miterlimit:10;" d="M 187.085938 175.863281 L 173.496094 197.171875 "/>
<path style="fill:none;stroke-width:1;stroke-linecap:butt;stroke-linejoin:miter;stroke:rgb(0%,0%,0%);stroke-opacity:1;stroke-miterlimit:10;" d="M 136.59375 173.636719 L 136.59375 173.636719 M 137.496094 176.5 L 138.421875 176.015625 M 138.394531 179.359375 L 140.246094 178.398438 M 139.296875 182.222656 L 142.070312 180.777344 M 140.195312 185.082031 L 143.898438 183.160156 M 141.097656 187.945312 L 145.722656 185.539062 M 141.996094 190.808594 L 147.546875 187.921875 M 142.898438 193.667969 L 149.371094 190.300781 M 143.796875 196.53125 L 151.199219 192.683594 M 144.296875 198.113281 L 152.207031 194 "/>
<path style="fill:none;stroke-width:1.2;stroke-linecap:butt;stroke-linejoin:miter;stroke:rgb(0%,0%,0%);stroke-opacity:1;stroke-miterlimit:10;" d="M 136.59375 173.636719 L 120.855469 193.40625 "/>
<path style="fill:none;stroke-width:1.2;stroke-linecap:butt;stroke-linejoin:miter;stroke:rgb(0%,0%,0%);stroke-opacity:1;stroke-miterlimit:10;" d="M 136.59375 173.636719 L 150.183594 152.332031 "/>
<path style="fill:none;stroke-width:1.2;stroke-linecap:butt;stroke-linejoin:miter;stroke:rgb(0%,0%,0%);stroke-opacity:1;stroke-miterlimit:10;" d="M 122.65625 152.558594 L 136.59375 173.636719 "/>
<path style="fill:none;stroke-width:1.2;stroke-linecap:butt;stroke-linejoin:miter;stroke:rgb(0%,0%,0%);stroke-opacity:1;stroke-miterlimit:10;" d="M 120.855469 193.40625 L 97.1875 184.542969 "/>
<path style="fill:none;stroke-width:1.2;stroke-linecap:butt;stroke-linejoin:miter;stroke:rgb(0%,0%,0%);stroke-opacity:1;stroke-miterlimit:10;" d="M 97.1875 184.542969 L 97.746094 171.921875 "/>
<path style="fill:none;stroke-width:1.2;stroke-linecap:butt;stroke-linejoin:miter;stroke:rgb(0%,0%,100%);stroke-opacity:1;stroke-miterlimit:10;" d="M 97.746094 171.921875 L 98.304688 159.300781 "/>
<path style="fill:none;stroke-width:1.2;stroke-linecap:butt;stroke-linejoin:miter;stroke:rgb(0%,0%,100%);stroke-opacity:1;stroke-miterlimit:10;" d="M 98.304688 159.300781 L 110.480469 155.929688 "/>
<path style="fill:none;stroke-width:1.2;stroke-linecap:butt;stroke-linejoin:miter;stroke:rgb(0%,0%,0%);stroke-opacity:1;stroke-miterlimit:10;" d="M 110.480469 155.929688 L 122.65625 152.558594 "/>
<path style="fill:none;stroke-width:1.2;stroke-linecap:butt;stroke-linejoin:miter;stroke:rgb(0%,0%,100%);stroke-opacity:1;stroke-miterlimit:10;" d="M 98.304688 159.300781 L 88.417969 151.429688 "/>
<path style="fill:none;stroke-width:1.2;stroke-linecap:butt;stroke-linejoin:miter;stroke:rgb(0%,0%,0%);stroke-opacity:1;stroke-miterlimit:10;" d="M 88.417969 151.429688 L 78.535156 143.558594 "/>
<path style=" stroke:none;fill-rule:nonzero;fill:rgb(100%,100%,100%);fill-opacity:1;" d="M 95.304688 153.800781 L 102.304688 153.800781 L 102.304688 164.800781 L 95.304688 164.800781 Z M 95.304688 153.800781 "/>
<g style="fill:rgb(0%,0%,100%);fill-opacity:1;">
  <use xlink:href="#glyph0-1" x="95.304688" y="162.463867"/>
</g>
<path style="fill:none;stroke-width:1.2;stroke-linecap:butt;stroke-linejoin:miter;stroke:rgb(0%,0%,0%);stroke-opacity:1;stroke-miterlimit:10;" d="M 78.535156 143.558594 L 82.28125 118.570312 "/>
<path style="fill:none;stroke-width:1.2;stroke-linecap:butt;stroke-linejoin:miter;stroke:rgb(0%,0%,0%);stroke-opacity:1;stroke-miterlimit:10;" d="M 73.027344 140.179688 L 76.027344 120.1875 "/>
<path style="fill:none;stroke-width:1.2;stroke-linecap:butt;stroke-linejoin:miter;stroke:rgb(0%,0%,0%);stroke-opacity:1;stroke-miterlimit:10;" d="M 55.019531 152.808594 L 78.535156 143.558594 "/>
<path style="fill:none;stroke-width:1.2;stroke-linecap:butt;stroke-linejoin:miter;stroke:rgb(0%,0%,0%);stroke-opacity:1;stroke-miterlimit:10;" d="M 82.28125 118.570312 L 62.511719 102.828125 "/>
<path style="fill:none;stroke-width:1.2;stroke-linecap:butt;stroke-linejoin:miter;stroke:rgb(0%,0%,0%);stroke-opacity:1;stroke-miterlimit:10;" d="M 62.511719 102.828125 L 50.753906 107.453125 "/>
<path style="fill:none;stroke-width:1.2;stroke-linecap:butt;stroke-linejoin:miter;stroke:rgb(0%,0%,100%);stroke-opacity:1;stroke-miterlimit:10;" d="M 50.753906 107.453125 L 38.996094 112.078125 "/>
<path style="fill:none;stroke-width:1.2;stroke-linecap:butt;stroke-linejoin:miter;stroke:rgb(0%,0%,0%);stroke-opacity:1;stroke-miterlimit:10;" d="M 62.335938 109.289062 L 52.929688 112.988281 "/>
<path style="fill:none;stroke-width:1.2;stroke-linecap:butt;stroke-linejoin:miter;stroke:rgb(0%,0%,100%);stroke-opacity:1;stroke-miterlimit:10;" d="M 52.929688 112.988281 L 43.523438 116.6875 "/>
<path style="fill:none;stroke-width:1.2;stroke-linecap:butt;stroke-linejoin:miter;stroke:rgb(0%,0%,100%);stroke-opacity:1;stroke-miterlimit:10;" d="M 38.996094 112.078125 L 37.125 124.574219 "/>
<path style="fill:none;stroke-width:1.2;stroke-linecap:butt;stroke-linejoin:miter;stroke:rgb(0%,0%,0%);stroke-opacity:1;stroke-miterlimit:10;" d="M 37.125 124.574219 L 35.25 137.070312 "/>
<path style=" stroke:none;fill-rule:nonzero;fill:rgb(100%,100%,100%);fill-opacity:1;" d="M 35.996094 106.578125 L 42.996094 106.578125 L 42.996094 117.578125 L 35.996094 117.578125 Z M 35.996094 106.578125 "/>
<g style="fill:rgb(0%,0%,100%);fill-opacity:1;">
  <use xlink:href="#glyph0-1" x="35.996094" y="115.241211"/>
</g>
<path style="fill:none;stroke-width:1.2;stroke-linecap:butt;stroke-linejoin:miter;stroke:rgb(0%,0%,0%);stroke-opacity:1;stroke-miterlimit:10;" d="M 35.25 137.070312 L 55.019531 152.808594 "/>
<path style="fill:none;stroke-width:1.2;stroke-linecap:butt;stroke-linejoin:miter;stroke:rgb(0%,0%,0%);stroke-opacity:1;stroke-miterlimit:10;" d="M 40.929688 133.992188 L 56.746094 146.585938 "/>
<path style="fill:none;stroke-width:1.2;stroke-linecap:butt;stroke-linejoin:miter;stroke:rgb(0%,0%,0%);stroke-opacity:1;stroke-miterlimit:10;" d="M 150.183594 152.332031 L 162.804688 152.886719 "/>
<path style="fill:none;stroke-width:1.2;stroke-linecap:butt;stroke-linejoin:miter;stroke:rgb(0%,0%,100%);stroke-opacity:1;stroke-miterlimit:10;" d="M 162.804688 152.886719 L 175.425781 153.445312 "/>
<path style="fill:none;stroke-width:1.2;stroke-linecap:butt;stroke-linejoin:miter;stroke:rgb(0%,0%,100%);stroke-opacity:1;stroke-miterlimit:10;" d="M 175.425781 153.445312 L 181.257812 164.65625 "/>
<path style="fill:none;stroke-width:1.2;stroke-linecap:butt;stroke-linejoin:miter;stroke:rgb(0%,0%,0%);stroke-opacity:1;stroke-miterlimit:10;" d="M 181.257812 164.65625 L 187.085938 175.863281 "/>
<path style="fill:none;stroke-width:1.2;stroke-linecap:butt;stroke-linejoin:miter;stroke:rgb(0%,0%,100%);stroke-opacity:1;stroke-miterlimit:10;" d="M 175.425781 153.445312 L 182.222656 142.792969 "/>
<path style="fill:none;stroke-width:1.2;stroke-linecap:butt;stroke-linejoin:miter;stroke:rgb(0%,0%,0%);stroke-opacity:1;stroke-miterlimit:10;" d="M 182.222656 142.792969 L 189.015625 132.140625 "/>
<path style=" stroke:none;fill-rule:nonzero;fill:rgb(100%,100%,100%);fill-opacity:1;" d="M 172.425781 147.945312 L 179.425781 147.945312 L 179.425781 158.945312 L 172.425781 158.945312 Z M 172.425781 147.945312 "/>
<g style="fill:rgb(0%,0%,100%);fill-opacity:1;">
  <use xlink:href="#glyph0-1" x="172.425781" y="156.608398"/>
</g>
<path style="fill:none;stroke-width:1.2;stroke-linecap:butt;stroke-linejoin:miter;stroke:rgb(0%,0%,0%);stroke-opacity:1;stroke-miterlimit:10;" d="M 191.652344 130.769531 L 185.824219 119.558594 "/>
<path style="fill:none;stroke-width:1.2;stroke-linecap:butt;stroke-linejoin:miter;stroke:rgb(100%,0%,0%);stroke-opacity:1;stroke-miterlimit:10;" d="M 185.824219 119.558594 L 179.996094 108.347656 "/>
<path style="fill:none;stroke-width:1.2;stroke-linecap:butt;stroke-linejoin:miter;stroke:rgb(0%,0%,0%);stroke-opacity:1;stroke-miterlimit:10;" d="M 186.378906 133.511719 L 180.546875 122.300781 "/>
<path style="fill:none;stroke-width:1.2;stroke-linecap:butt;stroke-linejoin:miter;stroke:rgb(100%,0%,0%);stroke-opacity:1;stroke-miterlimit:10;" d="M 180.546875 122.300781 L 174.71875 111.089844 "/>
<path style="fill:none;stroke-width:1.2;stroke-linecap:butt;stroke-linejoin:miter;stroke:rgb(0%,0%,0%);stroke-opacity:1;stroke-miterlimit:10;" d="M 189.015625 132.140625 L 214.257812 133.253906 "/>
<path style=" stroke:none;fill-rule:nonzero;fill:rgb(100%,100%,100%);fill-opacity:1;" d="M 169.355469 104.21875 L 177.355469 104.21875 L 177.355469 115.21875 L 169.355469 115.21875 Z M 169.355469 104.21875 "/>
<g style="fill:rgb(100%,0%,0%);fill-opacity:1;">
  <use xlink:href="#glyph0-2" x="169.355469" y="112.881836"/>
</g>
<path style="fill:none;stroke-width:1.2;stroke-linecap:butt;stroke-linejoin:miter;stroke:rgb(0%,0%,0%);stroke-opacity:1;stroke-miterlimit:10;" d="M 214.257812 133.253906 L 220.089844 144.464844 "/>
<path style="fill:none;stroke-width:1.2;stroke-linecap:butt;stroke-linejoin:miter;stroke:rgb(0%,0%,100%);stroke-opacity:1;stroke-miterlimit:10;" d="M 220.089844 144.464844 L 225.917969 155.671875 "/>
<path style="fill:none;stroke-width:1.2;stroke-linecap:butt;stroke-linejoin:miter;stroke:rgb(0%,0%,0%);stroke-opacity:1;stroke-miterlimit:10;" d="M 220.699219 132.753906 L 225.363281 141.71875 "/>
<path style="fill:none;stroke-width:1.2;stroke-linecap:butt;stroke-linejoin:miter;stroke:rgb(0%,0%,100%);stroke-opacity:1;stroke-miterlimit:10;" d="M 225.363281 141.71875 L 230.027344 150.6875 "/>
<path style="fill:none;stroke-width:1.2;stroke-linecap:butt;stroke-linejoin:miter;stroke:rgb(0%,0%,0%);stroke-opacity:1;stroke-miterlimit:10;" d="M 227.847656 111.949219 L 214.257812 133.253906 "/>
<path style="fill:none;stroke-width:1.2;stroke-linecap:butt;stroke-linejoin:miter;stroke:rgb(0%,0%,100%);stroke-opacity:1;stroke-miterlimit:10;" d="M 225.917969 155.671875 L 238.539062 156.230469 "/>
<path style="fill:none;stroke-width:1.2;stroke-linecap:butt;stroke-linejoin:miter;stroke:rgb(0%,0%,0%);stroke-opacity:1;stroke-miterlimit:10;" d="M 238.539062 156.230469 L 251.164062 156.789062 "/>
<path style=" stroke:none;fill-rule:nonzero;fill:rgb(100%,100%,100%);fill-opacity:1;" d="M 222.917969 150.171875 L 229.917969 150.171875 L 229.917969 161.171875 L 222.917969 161.171875 Z M 222.917969 150.171875 "/>
<g style="fill:rgb(0%,0%,100%);fill-opacity:1;">
  <use xlink:href="#glyph0-1" x="222.917969" y="158.834961"/>
</g>
<path style="fill:none;stroke-width:1.2;stroke-linecap:butt;stroke-linejoin:miter;stroke:rgb(0%,0%,0%);stroke-opacity:1;stroke-miterlimit:10;" d="M 251.164062 156.789062 L 264.75 135.480469 "/>
<path style="fill:none;stroke-width:1.2;stroke-linecap:butt;stroke-linejoin:miter;stroke:rgb(0%,0%,0%);stroke-opacity:1;stroke-miterlimit:10;" d="M 247.507812 151.460938 L 258.378906 134.414062 "/>
<path style="fill:none;stroke-width:1.2;stroke-linecap:butt;stroke-linejoin:miter;stroke:rgb(0%,0%,0%);stroke-opacity:1;stroke-miterlimit:10;" d="M 264.75 135.480469 L 258.921875 124.273438 "/>
<path style="fill:none;stroke-width:1.2;stroke-linecap:butt;stroke-linejoin:miter;stroke:rgb(0%,0%,100%);stroke-opacity:1;stroke-miterlimit:10;" d="M 258.921875 124.273438 L 253.09375 113.0625 "/>
<path style="fill:none;stroke-width:1.2;stroke-linecap:butt;stroke-linejoin:miter;stroke:rgb(0%,0%,100%);stroke-opacity:1;stroke-miterlimit:10;" d="M 253.09375 113.0625 L 240.46875 112.503906 "/>
<path style="fill:none;stroke-width:1.2;stroke-linecap:butt;stroke-linejoin:miter;stroke:rgb(0%,0%,0%);stroke-opacity:1;stroke-miterlimit:10;" d="M 240.46875 112.503906 L 227.847656 111.949219 "/>
<path style="fill:none;stroke-width:1.2;stroke-linecap:butt;stroke-linejoin:miter;stroke:rgb(0%,0%,100%);stroke-opacity:1;stroke-miterlimit:10;" d="M 250.304688 118.890625 L 240.207031 118.445312 "/>
<path style="fill:none;stroke-width:1.2;stroke-linecap:butt;stroke-linejoin:miter;stroke:rgb(0%,0%,0%);stroke-opacity:1;stroke-miterlimit:10;" d="M 240.207031 118.445312 L 230.109375 118 "/>
<path style=" stroke:none;fill-rule:nonzero;fill:rgb(100%,100%,100%);fill-opacity:1;" d="M 250.09375 107.5625 L 257.09375 107.5625 L 257.09375 118.5625 L 250.09375 118.5625 Z M 250.09375 107.5625 "/>
<g style="fill:rgb(0%,0%,100%);fill-opacity:1;">
  <use xlink:href="#glyph0-1" x="250.09375" y="116.225586"/>
</g>
</g>
</svg>

<svg xmlns="http://www.w3.org/2000/svg" xmlns:xlink="http://www.w3.org/1999/xlink" width="300pt" height="300pt" viewBox="0 0 300 300"><defs><symbol overflow="visible"><path d="M.453 1.594v-7.938h4.5v7.938zm.5-.5h3.5v-6.938h-3.5zm0 0"/></symbol><symbol overflow="visible" id="a"><path d="M.89-6.563H2.08l2.906 5.485v-5.484h.86V0H4.656L1.75-5.484V0H.89zm0 0"/></symbol><symbol overflow="visible" id="b"><path d="M3.547-5.953c-.65 0-1.164.242-1.547.72-.375.48-.563 1.13-.563 1.952 0 .835.188 1.49.563 1.967.383.48.898.72 1.547.72.644 0 1.156-.24 1.53-.72.376-.476.564-1.132.564-1.968 0-.822-.187-1.474-.562-1.954-.375-.477-.887-.72-1.53-.72zm0-.734c.914 0 1.648.312 2.203.937.55.617.828 1.438.828 2.47 0 1.042-.277 1.87-.828 2.483-.555.617-1.29.922-2.203.922-.93 0-1.668-.305-2.22-.922C.774-1.41.5-2.237.5-3.28c0-1.033.273-1.853.828-2.47.55-.625 1.29-.938 2.22-.938zm0 0"/></symbol></defs><g><path fill="#fff" d="M0 0h300v300H0z"/><path d="M173.496 197.172l-25.242-1.113M187.086 175.863l-13.59 21.31" stroke-width="1.2" stroke="#000" stroke-miterlimit="10" fill="none"/><path d="M136.594 173.637m.902 2.863l.926-.484m-.027 3.343l1.85-.962m-.948 3.825l2.773-1.446m-1.875 4.305l3.703-1.922m-2.8 4.785l4.625-2.406m-3.727 5.27l5.55-2.888m-4.648 5.746l6.473-3.367m-5.573 6.23l7.402-3.846m-6.903 5.43l7.91-4.114" stroke="#000" stroke-miterlimit="10" fill="none"/><path d="M136.594 173.637l-15.74 19.77M136.594 173.637l13.59-21.305M122.656 152.56l13.938 21.077M120.855 193.406l-23.668-8.863M97.188 184.543l.558-12.62" stroke-width="1.2" stroke="#000" stroke-miterlimit="10" fill="none"/><path d="M97.746 171.922l.56-12.62M98.305 159.3l12.175-3.37" stroke-width="1.2" stroke="#00f" stroke-miterlimit="10" fill="none"/><path d="M110.48 155.93l12.176-3.37" stroke-width="1.2" stroke="#000" stroke-miterlimit="10" fill="none"/><path d="M98.305 159.3l-9.887-7.87" stroke-width="1.2" stroke="#00f" stroke-miterlimit="10" fill="none"/><path d="M88.418 151.43l-9.883-7.87" stroke-width="1.2" stroke="#000" stroke-miterlimit="10" fill="none"/><path d="M95.305 153.8h7v11h-7zm0 0" fill="#fff"/><use xlink:href="#a" x="95.305" y="162.464" fill="#00f"/><path d="M78.535 143.56l3.746-24.99M73.027 140.18l3-19.993M55.02 152.81l23.515-9.25M82.28 118.57l-19.768-15.742M62.512 102.828l-11.758 4.625" stroke-width="1.2" stroke="#000" stroke-miterlimit="10" fill="none"/><path d="M50.754 107.453l-11.758 4.625" stroke-width="1.2" stroke="#00f" stroke-miterlimit="10" fill="none"/><path d="M62.336 109.29l-9.406 3.698" stroke-width="1.2" stroke="#000" stroke-miterlimit="10" fill="none"/><path d="M52.93 112.988l-9.407 3.7M38.996 112.078l-1.87 12.496" stroke-width="1.2" stroke="#00f" stroke-miterlimit="10" fill="none"/><path d="M37.125 124.574L35.25 137.07" stroke-width="1.2" stroke="#000" stroke-miterlimit="10" fill="none"/><path d="M35.996 106.578h7v11h-7zm0 0" fill="#fff"/><use xlink:href="#a" x="35.996" y="115.241" fill="#00f"/><path d="M35.25 137.07l19.77 15.74M40.93 133.992l15.816 12.594M150.184 152.332l12.62.555" stroke-width="1.2" stroke="#000" stroke-miterlimit="10" fill="none"/><path d="M162.805 152.887l12.62.558M175.426 153.445l5.832 11.21" stroke-width="1.2" stroke="#00f" stroke-miterlimit="10" fill="none"/><path d="M181.258 164.656l5.828 11.207" stroke-width="1.2" stroke="#000" stroke-miterlimit="10" fill="none"/><path d="M175.426 153.445l6.797-10.652" stroke-width="1.2" stroke="#00f" stroke-miterlimit="10" fill="none"/><path d="M182.223 142.793l6.793-10.652" stroke-width="1.2" stroke="#000" stroke-miterlimit="10" fill="none"/><path d="M172.426 147.945h7v11h-7zm0 0" fill="#fff"/><use xlink:href="#a" x="172.426" y="156.608" fill="#00f"/><path d="M191.652 130.77l-5.828-11.21" stroke-width="1.2" stroke="#000" stroke-miterlimit="10" fill="none"/><path d="M185.824 119.56l-5.828-11.212" stroke-width="1.2" stroke="#f00" stroke-miterlimit="10" fill="none"/><path d="M186.38 133.512l-5.833-11.21" stroke-width="1.2" stroke="#000" stroke-miterlimit="10" fill="none"/><path d="M180.547 122.3l-5.828-11.21" stroke-width="1.2" stroke="#f00" stroke-miterlimit="10" fill="none"/><path d="M189.016 132.14l25.242 1.114" stroke-width="1.2" stroke="#000" stroke-miterlimit="10" fill="none"/><path d="M169.355 104.22h8v11h-8zm0 0" fill="#fff"/><use xlink:href="#b" x="169.355" y="112.882" fill="#f00"/><path d="M214.258 133.254l5.832 11.21" stroke-width="1.2" stroke="#000" stroke-miterlimit="10" fill="none"/><path d="M220.09 144.465l5.828 11.207" stroke-width="1.2" stroke="#00f" stroke-miterlimit="10" fill="none"/><path d="M220.7 132.754l4.663 8.965" stroke-width="1.2" stroke="#000" stroke-miterlimit="10" fill="none"/><path d="M225.363 141.72l4.664 8.968" stroke-width="1.2" stroke="#00f" stroke-miterlimit="10" fill="none"/><path d="M227.848 111.95l-13.59 21.304" stroke-width="1.2" stroke="#000" stroke-miterlimit="10" fill="none"/><path d="M225.918 155.672l12.62.558" stroke-width="1.2" stroke="#00f" stroke-miterlimit="10" fill="none"/><path d="M238.54 156.23l12.624.56" stroke-width="1.2" stroke="#000" stroke-miterlimit="10" fill="none"/><path d="M222.918 150.172h7v11h-7zm0 0" fill="#fff"/><use xlink:href="#a" x="222.918" y="158.835" fill="#00f"/><path d="M251.164 156.79l13.586-21.31M247.508 151.46l10.87-17.046M264.75 135.48l-5.828-11.207" stroke-width="1.2" stroke="#000" stroke-miterlimit="10" fill="none"/><path d="M258.922 124.273l-5.828-11.21M253.094 113.063l-12.625-.56" stroke-width="1.2" stroke="#00f" stroke-miterlimit="10" fill="none"/><path d="M240.47 112.504l-12.622-.555" stroke-width="1.2" stroke="#000" stroke-miterlimit="10" fill="none"/><path d="M250.305 118.89l-10.098-.445" stroke-width="1.2" stroke="#00f" stroke-miterlimit="10" fill="none"/><path d="M240.207 118.445L230.11 118" stroke-width="1.2" stroke="#000" stroke-miterlimit="10" fill="none"/><path d="M250.094 107.563h7v11h-7zm0 0" fill="#fff"/><use xlink:href="#a" x="250.094" y="116.226" fill="#00f"/></g></svg>
